Numix-Circle/48x48/apps/palimpsest.svg

<?xml version="1.0" encoding="UTF-8" standalone="no"?>
<svg
   xmlns:dc="http://purl.org/dc/elements/1.1/"
   xmlns:cc="http://creativecommons.org/ns#"
   xmlns:rdf="http://www.w3.org/1999/02/22-rdf-syntax-ns#"
   xmlns:svg="http://www.w3.org/2000/svg"
   xmlns="http://www.w3.org/2000/svg"
   xmlns:xlink="http://www.w3.org/1999/xlink"
   xmlns:sodipodi="http://sodipodi.sourceforge.net/DTD/sodipodi-0.dtd"
   xmlns:inkscape="http://www.inkscape.org/namespaces/inkscape"
   width="48"
   viewBox="0 0 13.546667 13.546667"
   height="48"
   id="svg2"
   version="1.1"
   inkscape:version="0.91 r13725"
   sodipodi:docname="palimpsest.svg">
  <metadata
     id="metadata331">
    <rdf:RDF>
      <cc:Work
         rdf:about="">
        <dc:format>image/svg+xml</dc:format>
        <dc:type
           rdf:resource="http://purl.org/dc/dcmitype/StillImage" />
        <dc:title />
      </cc:Work>
    </rdf:RDF>
  </metadata>
  <sodipodi:namedview
     pagecolor="#ffffff"
     bordercolor="#666666"
     borderopacity="1"
     objecttolerance="10"
     gridtolerance="10"
     guidetolerance="10"
     inkscape:pageopacity="0"
     inkscape:pageshadow="2"
     inkscape:window-width="1366"
     inkscape:window-height="713"
     id="namedview329"
     showgrid="true"
     inkscape:zoom="22.627417"
     inkscape:cx="29.831564"
     inkscape:cy="26.86623"
     inkscape:window-x="0"
     inkscape:window-y="28"
     inkscape:window-maximized="1"
     inkscape:current-layer="layer3"
     showguides="true">
    <inkscape:grid
       type="xygrid"
       id="grid3308" />
  </sodipodi:namedview>
  <defs
     id="defs4">
    <linearGradient
       inkscape:collect="always"
       xlink:href="#linearGradient4524"
       id="linearGradient5371"
       gradientUnits="userSpaceOnUse"
       x1="-25.499998"
       y1="15"
       x2="-25.499998"
       y2="11" />
    <radialGradient
       inkscape:collect="always"
       xlink:href="#linearGradient3764"
       id="radialGradient3977"
       cx="24"
       cy="1024.3622"
       fx="24"
       fy="1024.3622"
       r="11"
       gradientTransform="matrix(0.28222223,0,0,0.2309091,-2.0833331e-8,-230.60788)"
       gradientUnits="userSpaceOnUse" />
    <linearGradient
       gradientTransform="translate(-47.997785,0.00221467)"
       gradientUnits="userSpaceOnUse"
       x2="47"
       x1="1"
       id="linearGradient3764">
      <stop
         id="stop3935"
         stop-opacity="1"
         stop-color="#e4e4e4"
         offset="0"
         style="stop-color:#dadada;stop-opacity:1;" />
      <stop
         id="stop3937"
         stop-opacity="1"
         stop-color="#eee"
         offset="1"
         style="stop-color:#e4e4e4;stop-opacity:1;" />
    </linearGradient>
    <linearGradient
       id="linearGradient4524">
      <stop
         style="stop-color:#7f8c8d;stop-opacity:1;"
         offset="0"
         id="stop4526" />
      <stop
         style="stop-color:#879c9e;stop-opacity:1;"
         offset="1"
         id="stop4528" />
    </linearGradient>
  </defs>
  <g
     inkscape:groupmode="layer"
     id="layer1"
     inkscape:label="Shadow"
     sodipodi:insensitive="true">
    <path
       style="opacity:0.05;fill:#000000;fill-opacity:1;stroke:none"
       d="M 25,2 C 12.297451,2 2,12.297451 2,25 2,31.367153 4.6007106,37.116628 8.78125,41.28125 12.865755,44.99361 18.29568,47.25 24.25,47.25 c 12.702549,0 23,-10.297451 23,-23 0,-5.95432 -2.25639,-11.384245 -5.96875,-15.46875 C 37.116628,4.6007105 31.367153,2 25,2 z M 41.28125,8.78125 C 45.135604,12.894061 47.5,18.418655 47.5,24.5 c 0,12.702549 -10.297451,23 -23,23 C 18.418655,47.5 12.894061,45.135604 8.78125,41.28125 12.940939,45.4251 18.664604,48 25,48 37.702549,48 48,37.702549 48,25 48,18.664604 45.4251,12.940939 41.28125,8.78125 z"
       transform="scale(0.28222223,0.28222223)"
       id="path3978"
       inkscape:connector-curvature="0" />
    <path
       style="opacity:0.1;fill:#000000;fill-opacity:1;stroke:none"
       d="M 41.28125,8.78125 C 44.99361,12.865755 47.25,18.29568 47.25,24.25 c 0,12.702549 -10.297451,23 -23,23 -5.95432,0 -11.384245,-2.25639 -15.46875,-5.96875 C 12.894061,45.135604 18.418655,47.5 24.5,47.5 c 12.702549,0 23,-10.297451 23,-23 0,-6.081345 -2.364396,-11.605939 -6.21875,-15.71875 z"
       transform="scale(0.28222223,0.28222223)"
       id="path3976"
       inkscape:connector-curvature="0" />
    <path
       transform="matrix(4.3274074,0,0,3.2455556,117.19278,-35.348334)"
       d="m -24,13 a 1.5,2 0 1 1 -3,0 1.5,2 0 1 1 3,0 z"
       sodipodi:ry="2"
       sodipodi:rx="1.5"
       sodipodi:cy="13"
       sodipodi:cx="-25.5"
       id="path3952"
       style="opacity:0.2;fill:#000000;fill-opacity:1;stroke:none"
       sodipodi:type="arc" />
  </g>
  <g
     inkscape:groupmode="layer"
     id="layer2"
     inkscape:label="Base">
    <path
       sodipodi:type="arc"
       style="opacity:1;fill:url(#linearGradient5371);fill-opacity:1.0;stroke:none"
       id="path3942"
       sodipodi:cx="-25.5"
       sodipodi:cy="13"
       sodipodi:rx="1.5"
       sodipodi:ry="2"
       d="m -24,13 a 1.5,2 0 1 1 -3,0 1.5,2 0 1 1 3,0 z"
       transform="matrix(4.3274075,0,0,3.2455556,117.12222,-35.418889)" />
    <path
       style="opacity:0.1;fill:#000000;fill-opacity:1;stroke:none"
       d="M 40.03125 7.53125 C 43.74361 11.615755 46 17.04568 46 23 C 46 35.702549 35.702549 46 23 46 C 17.04568 46 11.615755 43.74361 7.53125 40.03125 C 11.709416 44.322508 17.537578 47 24 47 C 36.702549 47 47 36.702549 47 24 C 47 17.537578 44.322508 11.709416 40.03125 7.53125 z "
       id="path4027"
       transform="scale(0.28222223,0.28222223)" />
  </g>
  <g
     inkscape:groupmode="layer"
     id="layer3"
     inkscape:label="Symbol">
    <path
       style="opacity:0.1;fill:#000000;fill-opacity:1;stroke:none;display:inline"
       d="M 16 13 L 14 31 L 14 37 L 36 37 L 36 31 L 34 13 L 16 13 z "
       transform="scale(0.28222223,0.28222223)"
       id="rect4867" />
    <rect
       style="fill:#1f1f1f;fill-opacity:1;stroke:none;display:inline"
       id="rect3863"
       width="6.208889"
       height="1.6933334"
       x="3.6688893"
       y="8.4666672" />
    <path
       style="display:inline;fill:url(#radialGradient3977);fill-opacity:1;stroke:none"
       d="m 4.2333334,3.3866714 4.2333335,0 -3.1044445,5.0800001 -1.6933334,0 z"
       id="rect3867"
       inkscape:connector-curvature="0"
       sodipodi:nodetypes="ccccc" />
    <path
       sodipodi:type="arc"
       style="fill:#03aae5;fill-opacity:1;stroke:none;display:inline"
       id="path3869"
       sodipodi:cx="31"
       sodipodi:cy="31"
       sodipodi:rx="1"
       sodipodi:ry="1"
       d="m 32,31 a 1,1 0 1 1 -2,0 1,1 0 1 1 2,0 z"
       transform="matrix(0.28222223,0,0,0.28222223,0.28222228,0.56444909)" />
    <path
       style="display:inline;fill:#edd238;fill-opacity:1;stroke:none"
       d="m 30,12 -6,8 1,1 9,5 0.515625,-0.351562 L 33,12 Z"
       id="path3890"
       transform="scale(0.28222223,0.28222223)"
       inkscape:connector-curvature="0"
       sodipodi:nodetypes="ccccccc" />
    <path
       style="display:inline;fill:#557ab1;fill-opacity:1;stroke:none"
       d="m 6.7733335,5.6444446 1.1729862,2.8222223 1.9314582,0 L 9.7454859,7.2407782 6.7733335,5.6444446 Z"
       id="path3923"
       inkscape:connector-curvature="0" />
    <path
       style="fill:#45b95e;fill-opacity:1;stroke:none;display:inline"
       d="m 6.7733335,5.6444492 1.4111114,2.8222223 -2.8222225,0 z"
       id="path3937"
       inkscape:connector-curvature="0"
       sodipodi:nodetypes="cccc" />
  </g>
</svg>

<svg xmlns="http://www.w3.org/2000/svg" width="48" viewBox="0 0 13.546667 13.546667" height="48"><defs><linearGradient id="linearGradient5371" gradientUnits="userSpaceOnUse" y1="15" x2="0" y2="11"><stop stop-color="#7f8c8d" stop-opacity="1"/><stop offset="1" stop-color="#879c9e" stop-opacity="1"/></linearGradient><radialGradient id="radialGradient3977" cx="24" cy="1024.36" r="11" gradientTransform="matrix(0.28222223,0,0,0.2309091,-2.0833331e-8,-230.60788)" gradientUnits="userSpaceOnUse"><stop stop-opacity="1" stop-color="#dadada"/><stop stop-opacity="1" stop-color="#e4e4e4" offset="1"/></radialGradient></defs><g><path d="m 25 2 c -12.703 0 -23 10.297 -23 23 0 6.367 2.601 12.12 6.781 16.281 4.085 3.712 9.514 5.969 15.469 5.969 c 12.703 0 23 -10.297 23 -23 0 -5.954 -2.256 -11.384 -5.969 -15.469 c -4.165 -4.181 -9.914 -6.781 -16.281 -6.781 z m 16.281 6.781 c 3.854 4.113 6.219 9.637 6.219 15.719 c 0 12.703 -10.297 23 -23 23 c -6.081 0 -11.606 -2.364 -15.719 -6.219 4.16 4.144 9.883 6.719 16.219 6.719 12.703 0 23 -10.297 23 -23 0 -6.335 -2.575 -12.06 -6.719 -16.219 z" transform="scale(0.28222223,0.28222223)" opacity="0.05" fill="#000" stroke="none" fill-opacity="1"/><path d="m 41.28 8.781 c 3.712 4.085 5.969 9.514 5.969 15.469 c 0 12.703 -10.297 23 -23 23 -5.954 0 -11.384 -2.256 -15.469 -5.969 c 4.113 3.854 9.637 6.219 15.719 6.219 c 12.703 0 23 -10.297 23 -23 0 -6.081 -2.364 -11.606 -6.219 -15.719 z" transform="scale(0.28222223,0.28222223)" opacity="0.1" fill="#000" stroke="none" fill-opacity="1"/><path transform="matrix(4.3274074,0,0,3.2455556,117.19278,-35.348334)" d="m -24 13 a 1.5 2 0 1 1 -3 0 1.5 2 0 1 1 3 0 z" opacity="0.2" fill="#000" stroke="none" fill-opacity="1"/></g><g><path d="m -24 13 a 1.5 2 0 1 1 -3 0 1.5 2 0 1 1 3 0 z" transform="matrix(4.3274075,0,0,3.2455556,117.12222,-35.418889)" opacity="1" fill="url(#linearGradient5371)" stroke="none" fill-opacity="1"/><path d="m 40.03 7.531 c 3.712 4.085 5.969 9.514 5.969 15.469 c 0 12.703 -10.297 23 -23 23 c -5.954 0 -11.384 -2.256 -15.469 -5.969 c 4.178 4.291 10.01 6.969 16.469 6.969 c 12.703 0 23 -10.297 23 -23 c 0 -6.462 -2.677 -12.291 -6.969 -16.469 z" transform="scale(0.28222223,0.28222223)" opacity="0.1" fill="#000" stroke="none" fill-opacity="1"/></g><g><path d="m 16 13 l -2 18 l 0 6 l 22 0 l 0 -6 l -2 -18 l -18 0 z" transform="scale(0.28222223,0.28222223)" opacity="0.1" fill="#000" display="inline" stroke="none" fill-opacity="1"/><rect width="6.209" height="1.693" x="3.669" y="8.467" fill="#1f1f1f" display="inline" stroke="none" fill-opacity="1"/><path d="m 4.233 3.387 4.233 0 -3.104 5.08 -1.693 0 z" fill="url(#radialGradient3977)" display="inline" stroke="none" fill-opacity="1"/><path d="m 32 31 a 1 1 0 1 1 -2 0 1 1 0 1 1 2 0 z" transform="matrix(0.28222223,0,0,0.28222223,0.28222228,0.56444909)" fill="#03aae5" display="inline" stroke="none" fill-opacity="1"/><path d="m 30,12 -6,8 1,1 9,5 0.515625,-0.351562 L 33,12 Z" transform="scale(0.28222223,0.28222223)" fill="#edd238" display="inline" stroke="none" fill-opacity="1"/><path d="m 6.773 5.644 1.173 2.822 1.931 0 l -0.132 -1.226 -2.972 -1.596" fill="#557ab1" display="inline" stroke="none" fill-opacity="1"/><path d="m 6.773 5.644 1.411 2.822 -2.822 0 z" fill="#45b95e" display="inline" stroke="none" fill-opacity="1"/></g></svg>
